X: 14670
T: Gan Ainm
R: jig
M: 6/8
K: Amixolydian
|:A2e ece|fec e2c|B2f f2B|f2B f2B|
A2e ece|fec e2c|B2c d2e|d2c B2c:|
|:A2e e2f|g2f a3|a2g f2d|e2c B2c|
[1 A2e e2f|g2f a3|a2g f2d|B3 A3:|
[2 A2B c2d|edc d2e|f2e d2c|B3 A3||

